X: 6729
T: Chalk Sunday
R: jig
M: 6/8
K: Gmajor
|:A|BcB BGA|Bdf g2 a/g/|fdc BGB|dcB A2 g/e/|
dGG AGG|Bdf gag|gdA dcA|AGG G2:|
|:c|deg aba|gdc d2 f/g/|aec BGB|dcB A2 g/e/|
dGF GBA|Bdf g2 a/g/|gfd dcA|AGG G2:|

